3x2/TF.svg

<svg xmlns="http://www.w3.org/2000/svg" viewBox="0 0 22.5 15"><path fill="#FFF" d="M0 0h21v15H0V0z"/><path fill="#073AB6" d="M0 0h22.5v15H0V0z"/><path fill="#FFF" d="M0 0h11.3v7.5H0V0z"/><path fill="#F44653" d="M7.1 0h3.6v7H7.1V0z"/><path fill="#1035BB" d="M0 0h3.6v7H0V0z"/><path fill="#FFF" d="M3.6 0h3.6v7H3.6V0zM14.5 6h5L19 7h-1.5v.5h1l-.5 1h-.5V10h-1V7H15l-.5-1zm4 2.5 1 1.5h-2l1-1.5zm-3 0 1 1.5h-2l1-1.5zm1.5 3L16 10h2l-1 1.5zM20 8c-.3 0-.5-.2-.5-.5s.2-.5.5-.5.5.2.5.5-.2.5-.5.5zm-6 0c-.3 0-.5-.2-.5-.5s.2-.5.5-.5.5.2.5.5-.2.5-.5.5zm1 4c-.3 0-.5-.2-.5-.5s.2-.5.5-.5.5.2.5.5-.2.5-.5.5zm4 0c-.3 0-.5-.2-.5-.5s.2-.5.5-.5.5.2.5.5-.2.5-.5.5zm-2 1c-.3 0-.5-.2-.5-.5s.2-.5.5-.5.5.2.5.5-.2.5-.5.5z"/></svg>

<?xml version="1.0" encoding="utf-8"?>
<svg version="1.1" xmlns="http://www.w3.org/2000/svg" viewBox="0 0 22.5 15">
	<path fill="#FFFFFF" d="M0,0h21v15H0V0z"/>
	<path fill="#073AB6" d="M0,0h22.5v15H0V0z"/>
	<path fill="#FFFFFF" d="M0,0h11.3v7.5H0V0z"/>
	<path fill="#F44653" d="M7.1,0h3.6v7H7.1V0z"/>
	<path fill="#1035BB" d="M0,0h3.6v7H0V0z"/>
	<path fill="#FFFFFF" d="M3.6,0h3.6v7H3.6V0z"/>
	<path fill="#FFFFFF" d="M14.5,6h5L19,7h-1.5v0.5h1l-0.5,1h-0.5V10h-1V7H15L14.5,6z M18.5,8.5l1,1.5h-2L18.5,8.5z M15.5,8.5l1,1.5h-2
		L15.5,8.5z M17,11.5L16,10h2L17,11.5z M20,8c-0.3,0-0.5-0.2-0.5-0.5S19.7,7,20,7s0.5,0.2,0.5,0.5S20.3,8,20,8z M14,8
		c-0.3,0-0.5-0.2-0.5-0.5S13.7,7,14,7s0.5,0.2,0.5,0.5S14.3,8,14,8z M15,12c-0.3,0-0.5-0.2-0.5-0.5S14.7,11,15,11s0.5,0.2,0.5,0.5
		S15.3,12,15,12z M19,12c-0.3,0-0.5-0.2-0.5-0.5S18.7,11,19,11s0.5,0.2,0.5,0.5S19.3,12,19,12z M17,13c-0.3,0-0.5-0.2-0.5-0.5
		S16.7,12,17,12s0.5,0.2,0.5,0.5S17.3,13,17,13z"/>
</svg>
